X: 4
T: The Rose Tree
R: polka
M: 2/4
L: 1/8
K: Cmaj
|: e/d/ |cA GE | G>A GE/G/ | cB/c/ dc/d/ | ed d/f/e/d/ |
cA GE | G2 GE/G/ | cc d/4e/4d/c/d/ |[1 ec c :|[2 ec c3/ ||
|: d/ |e^d ef | g2 fe | da a>^g | ad d/f/e/d/ |
c>A GE | G/A/G/E/ GA/B/ | cB/c/ d^c/d/ |[1 ec c3/ :|[2 ec c |]


Tune 1123	Setting 23965

